src/assets/svgs/doors/lizGateInside.svg

<svg viewBox="0 0 291.24 240.43">
  <g class="post">
    <path d="M286.96,239.83c-7.09,0-14.18,.02-21.27,.03-.44-95.57,.59-141.84,3.2-237.35,7.28,.24,14.55,.5,21.83,.77-3.08,95.24-4.28,141.25-3.76,236.55Z"/>
    <path d="M25.55,239.85c-7.09,0-14.18-.02-21.27-.03C4.8,144.52,3.59,98.51,.52,3.27c7.28-.27,14.55-.53,21.83-.77,2.62,95.52,3.65,141.79,3.2,237.35Z"/>
  </g>
  <g class="plankLight">
    <path d="M225.66,239.9c13.34-.02,26.68-.03,40.03-.04-.44-95.57,.59-141.84,3.2-237.35-13.69-.43-27.39-.8-41.09-1.11-1.75,95.92-2.44,142.57-2.14,238.51Z"/>
    <path d="M105.6,239.92c13.34,0,26.68,0,40.02,0,0-96.24,0-143.19,0-239.43-13.7,.02-27.4,.09-41.1,.22,.87,96.16,1.22,143.03,1.07,239.2Z"/>
  </g>
  <g class="plankDark">
    <path d="M145.62,239.93c13.34,0,26.68,0,40.02,0-.15-96.17,.2-143.04,1.07-239.2-13.7-.13-27.4-.21-41.1-.22,0,96.24,0,143.19,0,239.43Z"/>
    <path d="M65.57,239.9c13.34,0,26.68,.01,40.02,.02,.15-96.17-.2-143.04-1.07-239.2-13.7,.16-27.4,.39-41.09,.67,1.75,95.92,2.44,142.57,2.14,238.51Z"/>
  </g>
  <g class="plankMedium">
    <path d="M185.64,239.92c13.34-.01,26.68-.02,40.02-.02-.29-95.94,.4-142.59,2.14-238.51-13.7-.28-27.39-.5-41.09-.67-.87,96.16-1.22,143.03-1.07,239.2Z"/>
    <path d="M25.55,239.85c13.34,.01,26.68,.03,40.03,.04,.29-95.94-.4-142.59-2.14-238.51-13.7,.31-27.39,.68-41.09,1.11,2.62,95.52,3.65,141.79,3.2,237.35Z"/>
  </g>
  <g class="beam">
    <path d="M23.28,23.54c.28,11.94,.54,23.88,.78,35.82,81.04-1.89,162.09-1.89,243.12,0,.24-11.94,.5-23.88,.78-35.82-81.55-2.23-163.13-2.23-244.68,0Z"/>
    <path d="M25.65,178.04c.02,11.95,.03,23.89,.02,35.84,79.97-.26,159.93-.26,239.9,0,0-11.95,0-23.89,.02-35.84-79.98-.58-159.96-.58-239.94,0Z"/>
    <path d="M82.28,58.31l184.9,119.73c-18.63-.13-37.26-.24-55.89-.31L25.65,59.36c18.88-.44,37.75-.79,56.63-1.05Z"/>
  </g>
  <g class="steelMedium">
    <path d="M13.2,55.16c4.31-.12,6.46-.17,10.77-.28-.18-8.95-.38-17.9-.58-26.86-4.33,.12-6.49,.18-10.82,.31,.22,8.94,.43,17.88,.63,26.82Z"/>
    <path d="M15.05,209.43c4.25-.02,6.37-.02,10.62-.04,0-8.96,0-17.92-.02-26.88-4.25,.03-6.37,.04-10.62,.07,.02,8.95,.02,17.89,.02,26.84Z"/>
    <path d="M23.86,49.6c11.38-2.05,22.77-4.06,34.16-6.05-.04-2.29-.05-3.44-.09-5.73-11.47-1.54-22.95-3.04-34.43-4.5,.12,5.43,.24,10.85,.35,16.28Z"/>
    <path d="M25.68,204.11c11.25-1.81,22.49-3.62,33.74-5.43,0-2.3,0-3.44,0-5.74-11.25-1.72-22.5-3.44-33.75-5.13,0,5.43,.01,10.87,.01,16.3Z"/>
  </g>
</svg>

<svg viewBox="0 0 291.24 240.43">
  <g class="post">
    <path d="M287,239.83l-21.27,0c-.44-95.56.59-141.83,3.2-237.35q10.92.36,21.83.77C287.64,98.51,286.44,144.52,287,239.83Z"/>
    <path d="M25.55,239.85l-21.27,0C4.8,144.52,3.59,98.51.52,3.27q10.91-.4,21.82-.77C25,98,26,144.29,25.55,239.85Z"/>
  </g>
  <g class="plankLight">
    <path d="M225.66,239.9l40-.05c-.44-95.56.59-141.83,3.2-237.35q-20.53-.65-41.08-1.11C226.06,97.31,225.37,144,225.66,239.9Z"/>
    <path d="M105.6,239.92h40V.5q-20.55,0-41.1.22C105.4,96.88,105.74,143.76,105.6,239.92Z"/>
  </g>
  <g class="plankDark">
    <path d="M145.62,239.93h40c-.15-96.16.2-143,1.07-239.2Q166.18.52,145.62.5Z"/>
    <path d="M65.57,239.9l40,0c.14-96.16-.2-143-1.08-239.2Q84,1,63.43,1.39C65.18,97.31,65.87,144,65.57,239.9Z"/>
  </g>
  <g class="plankMedium">
    <path d="M185.64,239.92l40,0c-.29-95.94.4-142.59,2.15-238.51Q207.26,1,186.71.72C185.84,96.88,185.49,143.76,185.64,239.92Z"/>
    <path d="M25.55,239.85l40,.05c.3-95.94-.39-142.59-2.14-238.51Q42.88,1.86,22.34,2.5C25,98,26,144.29,25.55,239.85Z"/>
  </g>
  <g class="beam">
    <path d="M23.28,23.54q.41,17.91.78,35.82,121.54-2.84,243.12,0,.36-17.91.78-35.82Q145.64,20.2,23.28,23.54Z"/>
    <path d="M25.65,178q0,17.91,0,35.83,120-.37,239.9,0,0-17.91,0-35.83Q145.62,177.17,25.65,178Z"/>
    <path d="M210.55,58.31,25.65,178q27.95-.21,55.89-.31L267.18,59.36Q238.86,58.7,210.55,58.31Z"/>
  </g>
  <g class="steelMedium">
    <path d="M13.2,55.16,24,54.89Q23.69,41.45,23.38,28l-10.82.31Q12.89,41.75,13.2,55.16Z"/>
    <path d="M15.05,209.43l10.62,0q0-13.42,0-26.87L15,182.59Q15.06,196,15.05,209.43Z"/>
    <path d="M23.86,49.6Q40.93,46.52,58,43.55c0-2.29-.05-3.44-.09-5.73q-17.2-2.31-34.42-4.5Q23.69,41.45,23.86,49.6Z"/>
    <path d="M25.68,204.11q16.86-2.73,33.74-5.43c0-2.3,0-3.44,0-5.74q-16.86-2.59-33.74-5.13Q25.69,196,25.68,204.11Z"/>
  </g>
</svg>
